-- change notes per octave on each cycle 
d1 $ pitch "0 10 8 1" # scale "<12 31 8>" # x 0

-- patternise gate inputs
d2 $ gate "0 1 0 0 1 1 1" # x 1 

-- create stepped automation
d3 $ volt "1 0.2 0.5 -0.2" # x 2

-- create adsr
d4 $ adsr 0.001 0.2 0.25 1 # x 3

-- patternise adsr
d5 $ adsr "<0.05 0.9>" "<0 0.4>" 1 1 # x 4

-- clock cv output
d6 $ clock # x 5